mono-outline/mastercard.svg

<svg xmlns="http://www.w3.org/2000/svg" fill="none" viewBox="0 0 780 500"><g clip-path="url(#a)"><path stroke="#393939" stroke-width="30" d="M53.385 15h671.729c21.201 0 38.386 16.853 38.386 37.64v395.22c0 20.788-17.185 37.64-38.386 37.64H53.385C32.186 485.5 15 468.648 15 447.86V52.64C15 31.853 32.186 15 53.385 15Z"/><path fill="#393939" d="M232.387 441.159v-25.484c0-9.749-5.938-16.132-16.132-16.132-5.097 0-10.639 1.682-14.449 7.224-2.969-4.651-7.225-7.224-13.608-7.224-4.256 0-8.512 1.286-11.877 5.938v-5.097h-8.907v40.775h8.907v-22.515c0-7.225 3.811-10.639 9.749-10.639 5.938 0 8.907 3.81 8.907 10.639v22.515h8.907v-22.515c0-7.225 4.256-10.639 9.749-10.639 5.938 0 8.907 3.81 8.907 10.639v22.515h9.847Zm132.124-40.775h-14.45v-12.322h-8.907v12.322h-8.066v8.066h8.066v18.705c0 9.353 3.811 14.845 14.004 14.845 3.811 0 8.066-1.286 11.035-2.969l-2.573-7.67c-2.573 1.683-5.542 2.128-7.67 2.128-4.256 0-5.938-2.573-5.938-6.779v-18.26h14.449v-8.066h.05Zm75.612-.891c-5.097 0-8.511 2.573-10.639 5.938v-5.097h-8.907v40.776h8.907v-22.961c0-6.78 2.969-10.639 8.511-10.639 1.683 0 3.811.445 5.543.841l2.573-8.511c-1.782-.347-4.305-.347-5.988-.347Zm-114.26 4.256c-4.255-2.969-10.193-4.256-16.577-4.256-10.194 0-16.973 5.097-16.973 13.163 0 6.779 5.097 10.639 14.004 11.876l4.256.446c4.651.841 7.225 2.128 7.225 4.255 0 2.969-3.415 5.097-9.353 5.097s-10.639-2.128-13.608-4.255l-4.256 6.779c4.652 3.414 11.035 5.097 17.419 5.097 11.876 0 18.705-5.542 18.705-13.163 0-7.225-5.543-11.035-14.004-12.322l-4.256-.445c-3.81-.445-6.779-1.287-6.779-3.81 0-2.969 2.969-4.652 7.67-4.652 5.097 0 10.193 2.128 12.767 3.415l3.76-7.225Zm236.982-4.256c-5.097 0-8.512 2.573-10.639 5.938v-5.097h-8.908v40.776h8.908v-22.961c0-6.78 2.969-10.639 8.511-10.639 1.682 0 3.81.445 5.542.841l2.573-8.412c-1.732-.446-4.255-.446-5.987-.446ZM449.03 420.772c0 12.321 8.512 21.228 21.675 21.228 5.938 0 10.193-1.286 14.449-4.651l-4.256-7.225c-3.414 2.573-6.779 3.81-10.639 3.81-7.224 0-12.321-5.097-12.321-13.162 0-7.671 5.097-12.767 12.321-13.163 3.811 0 7.225 1.286 10.639 3.81l4.256-7.225c-4.256-3.414-8.511-4.651-14.449-4.651-13.163-.05-21.675 8.907-21.675 21.229Zm82.392 0v-20.388h-8.907v5.097c-2.969-3.81-7.225-5.938-12.767-5.938-11.48 0-20.388 8.907-20.388 21.229 0 12.321 8.908 21.228 20.388 21.228 5.938 0 10.194-2.127 12.767-5.938v5.097h8.907v-20.387Zm-32.709 0c0-7.225 4.651-13.163 12.322-13.163 7.224 0 12.321 5.542 12.321 13.163 0 7.224-5.097 13.162-12.321 13.162-7.621-.445-12.322-5.987-12.322-13.162Zm-106.59-21.279c-11.876 0-20.387 8.512-20.387 21.229 0 12.767 8.511 21.229 20.833 21.229 5.938 0 11.876-1.683 16.577-5.542l-4.256-6.384c-3.414 2.573-7.67 4.256-11.876 4.256-5.542 0-11.035-2.573-12.322-9.749h30.136v-3.414c.396-13.113-7.274-21.625-18.705-21.625Zm0 7.67c5.543 0 9.353 3.415 10.194 9.749h-21.229c.841-5.493 4.652-9.749 11.035-9.749Zm221.295 13.609v-36.52h-8.907v21.229c-2.969-3.81-7.225-5.938-12.767-5.938-11.481 0-20.388 8.907-20.388 21.229 0 12.321 8.907 21.228 20.388 21.228 5.938 0 10.194-2.127 12.767-5.938v5.097h8.907v-20.387Zm-32.709 0c0-7.225 4.651-13.163 12.321-13.163 7.225 0 12.322 5.542 12.322 13.163 0 7.224-5.097 13.162-12.322 13.162-7.67-.445-12.321-5.987-12.321-13.162Zm-298.194 0v-20.388h-8.907v5.097c-2.969-3.81-7.225-5.938-12.767-5.938-11.481 0-20.388 8.907-20.388 21.229 0 12.321 8.907 21.228 20.388 21.228 5.938 0 10.194-2.127 12.767-5.938v5.097h8.907v-20.387Zm-33.105 0c0-7.225 4.651-13.163 12.322-13.163 7.224 0 12.321 5.542 12.321 13.163 0 7.224-5.097 13.162-12.321 13.162-7.671-.445-12.322-5.987-12.322-13.162ZM143.07 210.458c0 84.332 68.458 152.679 152.679 152.679 29.984 0 59.418-9.04 84.331-25.465-80.363-65.371-79.811-188.726 0-254.097-24.913-16.5355-54.347-25.4648-84.331-25.4648C211.528 58 143.07 126.457 143.07 210.458Zm246.932 119.938c77.717-60.63 77.386-178.805 0-239.7658-77.387 60.9608-77.717 179.2458 0 239.7658Zm246.931-119.938C636.933 126.457 568.476 58 484.255 58c-29.985 0-59.418 9.0395-84.332 25.4648 79.481 65.3712 80.694 189.0572 0 254.0972 24.914 16.535 54.568 25.465 84.332 25.465 84.221.11 152.678-68.237 152.678-152.569Z"/></g><defs><clipPath id="a"><path fill="#fff" d="M0 0h780v500H0z"/></clipPath></defs></svg>

<svg width="780" height="500" viewBox="0 0 780 500" fill="none" xmlns="http://www.w3.org/2000/svg">
<g clip-path="url(#clip0_6278_125892)">
<path d="M53.385 15H725.114C746.315 15 763.5 31.853 763.5 52.64V447.86C763.5 468.648 746.315 485.5 725.114 485.5H53.385C32.186 485.5 15 468.648 15 447.86V52.64C15 31.853 32.186 15 53.385 15Z" stroke="#393939" stroke-width="30"/>
<path d="M232.387 441.159V415.675C232.387 405.926 226.449 399.543 216.255 399.543C211.158 399.543 205.616 401.225 201.806 406.767C198.837 402.116 194.581 399.543 188.198 399.543C183.942 399.543 179.686 400.829 176.321 405.481V400.384H167.414V441.159H176.321V418.644C176.321 411.419 180.132 408.005 186.07 408.005C192.008 408.005 194.977 411.815 194.977 418.644V441.159H203.884V418.644C203.884 411.419 208.14 408.005 213.633 408.005C219.571 408.005 222.54 411.815 222.54 418.644V441.159H232.387ZM364.511 400.384H350.061V388.062H341.154V400.384H333.088V408.45H341.154V427.155C341.154 436.508 344.965 442 355.158 442C358.969 442 363.224 440.714 366.193 439.031L363.62 431.361C361.047 433.044 358.078 433.489 355.95 433.489C351.694 433.489 350.012 430.916 350.012 426.71V408.45H364.461V400.384H364.511ZM440.123 399.493C435.026 399.493 431.612 402.066 429.484 405.431V400.334H420.577V441.11H429.484V418.149C429.484 411.369 432.453 407.51 437.995 407.51C439.678 407.51 441.806 407.955 443.538 408.351L446.111 399.84C444.329 399.493 441.806 399.493 440.123 399.493ZM325.863 403.749C321.608 400.78 315.67 399.493 309.286 399.493C299.092 399.493 292.313 404.59 292.313 412.656C292.313 419.435 297.41 423.295 306.317 424.532L310.573 424.978C315.224 425.819 317.798 427.106 317.798 429.233C317.798 432.202 314.383 434.33 308.445 434.33C302.507 434.33 297.806 432.202 294.837 430.075L290.581 436.854C295.233 440.268 301.616 441.951 308 441.951C319.876 441.951 326.705 436.409 326.705 428.788C326.705 421.563 321.162 417.753 312.701 416.466L308.445 416.021C304.635 415.576 301.666 414.734 301.666 412.211C301.666 409.242 304.635 407.559 309.336 407.559C314.433 407.559 319.529 409.687 322.103 410.974L325.863 403.749ZM562.845 399.493C557.748 399.493 554.333 402.066 552.206 405.431V400.334H543.298V441.11H552.206V418.149C552.206 411.369 555.175 407.51 560.717 407.51C562.399 407.51 564.527 407.955 566.259 408.351L568.832 399.939C567.1 399.493 564.577 399.493 562.845 399.493ZM449.03 420.772C449.03 433.093 457.542 442 470.705 442C476.643 442 480.898 440.714 485.154 437.349L480.898 430.124C477.484 432.697 474.119 433.934 470.259 433.934C463.035 433.934 457.938 428.837 457.938 420.772C457.938 413.101 463.035 408.005 470.259 407.609C474.07 407.609 477.484 408.895 480.898 411.419L485.154 404.194C480.898 400.78 476.643 399.543 470.705 399.543C457.542 399.493 449.03 408.45 449.03 420.772ZM531.422 420.772V400.384H522.515V405.481C519.546 401.671 515.29 399.543 509.748 399.543C498.268 399.543 489.36 408.45 489.36 420.772C489.36 433.093 498.268 442 509.748 442C515.686 442 519.942 439.873 522.515 436.062V441.159H531.422V420.772ZM498.713 420.772C498.713 413.547 503.364 407.609 511.035 407.609C518.259 407.609 523.356 413.151 523.356 420.772C523.356 427.996 518.259 433.934 511.035 433.934C503.414 433.489 498.713 427.947 498.713 420.772ZM392.123 399.493C380.247 399.493 371.736 408.005 371.736 420.722C371.736 433.489 380.247 441.951 392.569 441.951C398.507 441.951 404.445 440.268 409.146 436.409L404.89 430.025C401.476 432.598 397.22 434.281 393.014 434.281C387.472 434.281 381.979 431.708 380.692 424.532H410.828C410.828 423.246 410.828 422.405 410.828 421.118C411.224 408.005 403.554 399.493 392.123 399.493ZM392.123 407.163C397.666 407.163 401.476 410.578 402.317 416.912H381.088C381.929 411.419 385.74 407.163 392.123 407.163ZM613.418 420.772V384.252H604.511V405.481C601.542 401.671 597.286 399.543 591.744 399.543C580.263 399.543 571.356 408.45 571.356 420.772C571.356 433.093 580.263 442 591.744 442C597.682 442 601.938 439.873 604.511 436.062V441.159H613.418V420.772ZM580.709 420.772C580.709 413.547 585.36 407.609 593.03 407.609C600.255 407.609 605.352 413.151 605.352 420.772C605.352 427.996 600.255 433.934 593.03 433.934C585.36 433.489 580.709 427.947 580.709 420.772ZM282.515 420.772V400.384H273.608V405.481C270.639 401.671 266.383 399.543 260.841 399.543C249.36 399.543 240.453 408.45 240.453 420.772C240.453 433.093 249.36 442 260.841 442C266.779 442 271.035 439.873 273.608 436.062V441.159H282.515V420.772ZM249.41 420.772C249.41 413.547 254.061 407.609 261.732 407.609C268.956 407.609 274.053 413.151 274.053 420.772C274.053 427.996 268.956 433.934 261.732 433.934C254.061 433.489 249.41 427.947 249.41 420.772Z" fill="#393939"/>
<path d="M143.07 210.458C143.07 294.79 211.528 363.137 295.749 363.137C325.733 363.137 355.167 354.097 380.08 337.672C299.717 272.301 300.269 148.946 380.08 83.575C355.167 67.0395 325.733 58.1102 295.749 58.1102C211.528 58 143.07 126.457 143.07 210.458ZM390.002 330.396C467.719 269.766 467.388 151.591 390.002 90.6302C312.615 151.591 312.285 269.876 390.002 330.396ZM636.933 210.458C636.933 126.457 568.476 58 484.255 58C454.27 58 424.837 67.0395 399.923 83.4648C479.404 148.836 480.617 272.522 399.923 337.562C424.837 354.097 454.491 363.027 484.255 363.027C568.476 363.137 636.933 294.79 636.933 210.458Z" fill="#393939"/>
</g>
<defs>
<clipPath id="clip0_6278_125892">
<rect width="780" height="500" fill="white"/>
</clipPath>
</defs>
</svg>
